!!!OTL: 1976. Osterjubel.
!!!ARE: Europa, Mitteleuropa, Deutschland
!!!SCT: E1976A
!!!TXL: @@DE
!!!YEM: Copyright 1995, estate of Helmut Schaffrath.
**kern	**text
*ICvox	*
*M3/4	*
*met(3)	*
*k[b-]	*
*F:	*
=1	=1
!LO:TX:a:t=Mainʒer Cantual 1605. Corner 1625.	!
!LO:TX:a:t=b) Katholiſche Lesart.	!
2r	.
{4f	2._Es
=2	=2
2f	iſt
4a	er-
=3	=3
2cc	-ſtan-
4dd	-den
=4	=4
(4cc	Je-
4a)	.
4cc	-ſus
=5	=5
2cc}	Chriſt,
{4ff	der
=6	=6
(4ee	an
4dd)	.
4ee	dem
=7	=7
2ff	Kreuʒ
4cc	ge-
=8	=8
2cc	-ſtor-
4b-	-ben
=9	=9
2a}	iſt,
{4f	dem
=10	=10
(4g	ſei
4a)	.
4b-/	Lob,
=11	=11
(4a	Ehr
4g)	.
4f	ʒu
=12	=12
(4e	al-
4d)	.
4e	-ler
=13	=13
2.f;}	Friſt.
==	==
!!!AGN: geistlich, Fest - Lied, Ostern
!!!ONB: ESAC (Essen Associative Code) Database: ERK3
!!!AMT: simple triple
!!!AIN: vox
!!!EED: Helmut Schaffrath
!!!EEV: 1.0
!!!GTL: Geistliche Lieder. 1. Christliche Festlieder: b) Osterkreis (Passionszeit, Ostern, Himmelfahrt, Pfingsten).
!!!URL-scan: https://rosdok.uni-rostock.de/mcrviewer/recordIdentifier/rosdok_ppn745177999/iview2/phys_0687.iview2?x=188.96815741118007&y=1207.44571133703&scale=0.7014306698522891&rotation=0&layout=singlePageLayout
!!!ENC: Anna Maria Matuszewska
!!!EEV: 2025/10/01
*-	*-
